X: 28
T: Contentment is wealth
C: anon.
O: Ireland
B: Francis O'Neill: "The Dance Music of Ireland" (1907) no. 28
R: Double jig
Z: Transcribed by Frank Nordberg - http://www.musicaviva.com
F: http://www.musicaviva.com/abc/tunes/ireland/oneill-1001/oneill-1001-002
8.abc
M: 6/8
L: 1/8
Q: 3/8=128
K: Am
(A/B/)|c>BA (A<a)g|e>^de A2c|B>AG Gge|d>(cB/A/) G2 (a/b/)|\
c'ba gba|edB g2e|dBG GAB|cAA A2:|
(c/d/)|ecA Acd|e^de A2 B/c/|dBG GBc|d^cd G2 c/d/|ecA Acd|\
eag e2d|edc Bcd|cAA A2:|
(e/d/)|cea cea|cAA A2 (d/c/)|Bdg Bdg|BGG G2 e/d/|cBA a^ga|\
bag a2d|edc Bcd|cAA A2:|
W:
W:
W: From Musica Viva - http://www.musicaviva.com
W: the Internet center for free sheet music downloads.


